X: 7275
T: Clarke's
R: strathspey
M: 4/4
K: Dmajor
d2dB A<FFA|G<EEG F<DDc|dcdB AF<Fe|1 (3fga eg fd (3ABc:|2 (3fga eg fddg||
fdad fdad|(3cBA eA cAeg|fdad fdef|g2ag fddg|
fdad fdad|(3cBA eA cAeA|(3Bcd (3cde dfef|gbag (3fed ec||

